dist/img/logo.svg

<svg width="300" height="300" viewBox="0 0 300 300" fill="none" xmlns="http://www.w3.org/2000/svg">
<path fill-rule="evenodd" clip-rule="evenodd" d="M145.474 226.293C203.321 226.293 250.215 179.399 250.215 121.552C250.215 63.7047 203.321 16.8103 145.474 16.8103C87.6265 16.8103 40.7322 63.7047 40.7322 121.552C40.7322 179.399 87.6265 226.293 145.474 226.293ZM145.474 243.103C212.605 243.103 267.025 188.683 267.025 121.552C267.025 54.4206 212.605 0 145.474 0C78.3424 0 23.9219 54.4206 23.9219 121.552C23.9219 188.683 78.3424 243.103 145.474 243.103Z" fill="#F59F0D"/>
<path fill-rule="evenodd" clip-rule="evenodd" d="M145.474 243.103C212.605 243.103 267.025 188.683 267.025 121.552C267.025 54.4206 212.605 0 145.474 0C78.3424 0 23.9219 54.4206 23.9219 121.552C23.9219 188.683 78.3424 243.103 145.474 243.103ZM145.474 226.293C203.321 226.293 250.215 179.399 250.215 121.552C250.215 63.7047 203.321 16.8103 145.474 16.8103C87.6265 16.8103 40.7322 63.7047 40.7322 121.552C40.7322 179.399 87.6265 226.293 145.474 226.293Z" fill="#F59F0D"/>
<path d="M69.8203 113.79L124.131 25.8594L156.752 80.2758L168.84 58.8416L195.626 103.633L207.342 82.371L235.338 128.015L261.2 169.394H236.777L215.644 137.099L192.529 140.481L170.477 105.636L158.398 125.428L146.645 105.636L125.424 71.118L113.139 80.2758L69.8203 113.79Z" fill="#2B2A29"/>
<path d="M51.7187 164.221L29.736 175.859L14.2188 184.264V299.35L140.943 276.074L234.046 240.514L286.411 230.815V104.516L268.314 108.617L247.515 113.311L229.52 117.669L182.322 124.781L129.305 147.41L104.089 137.065L71.1153 154.522L51.7187 164.221Z" fill="#2B2A29"/>
<path d="M58.1333 201.741C58.2832 208.423 56.3223 214.987 52.5206 220.528C49.1651 225.539 44.0829 229.192 38.2083 230.813C34.362 232.011 30.2496 232.113 26.3469 231.108V219.387C27.8813 220.251 29.5809 220.794 31.3389 220.98C33.0969 221.167 34.8752 220.994 36.5619 220.472C39.2177 219.798 41.5565 218.245 43.1849 216.075C44.5151 214.319 45.3304 212.238 45.5422 210.058L33.475 213.388V204.501L45.3925 201.226C45.2635 200.285 44.9007 199.389 44.3362 198.619C43.7716 197.849 43.0228 197.227 42.1559 196.809C40.2259 195.981 38.0518 195.89 36.0568 196.552C32.2163 197.671 28.8194 199.926 26.3281 203.01V191.455C29.7816 188.504 33.849 186.331 38.2457 185.088C44.1078 183.469 48.8911 184.217 52.5955 187.333C56.2998 190.449 58.1458 195.252 58.1333 201.741Z" fill="#F59F0D"/>
<path d="M98.9164 212.943L86.7931 216.273V199.106L74.389 202.528V219.696L62.2656 223.026V179.656L74.389 176.326V192.537L86.7931 189.133V172.885L98.9164 169.555V212.943Z" fill="#F59F0D"/>
<path d="M129.677 204.48L104.906 211.307V167.992L129.677 161.258V172.059L117.03 175.537V181.167L128.723 177.818V188.03L117.011 191.25V197.12L129.658 193.643L129.677 204.48Z" fill="#F59F0D"/>
<path d="M166.518 165.725C166.643 169.838 165.322 173.867 162.776 177.133C159.989 180.439 156.189 182.769 151.943 183.775L146.78 185.192V199.784L134.656 203.114V159.781L150.952 155.292C156.153 153.856 160.1 154.151 162.794 156.175C165.277 158.052 166.518 161.235 166.518 165.725ZM154.114 168.798C154.114 165.694 152.411 164.608 149.006 165.541L146.761 166.148V175.458L148.894 174.87C152.374 173.925 154.114 171.901 154.114 168.798Z" fill="#F59F0D"/>
<path d="M194.503 154.119L182.53 157.412V189.926L170.406 193.256V149.96L194.503 143.336V154.119Z" fill="#F59F0D"/>
<path d="M236.372 175.112L224.305 178.424V154.08L209.694 182.454L198.188 185.619V142.249L210.199 138.937V163.685L224.941 134.889L236.372 131.742V175.112Z" fill="#F59F0D"/>
<path d="M272.859 165.067L260.791 168.398V153.273L260.099 153.457L252.878 170.569L239.781 174.249L248.668 155.665C243.467 155.37 240.866 151.905 240.866 145.269C240.816 142.846 241.264 140.438 242.183 138.19C243.103 135.941 244.475 133.899 246.217 132.186C249.048 129.326 252.609 127.267 256.526 126.224L272.821 121.734L272.859 165.067ZM260.791 144.606V134.891L258.303 135.572C254.798 136.541 253.046 138.614 253.046 141.791C253.046 144.968 254.798 146.133 258.303 145.287L260.791 144.606Z" fill="#F59F0D"/>
<path d="M59.8391 262.162C59.904 265.801 58.673 269.349 56.3592 272.19C53.4054 275.605 49.4203 278.003 44.9842 279.035L27.1172 283.948V240.615L44.1984 235.923C48.3767 234.769 51.5697 235.033 53.7774 236.714C54.7574 237.52 55.5269 238.546 56.0216 239.705C56.5164 240.863 56.7219 242.122 56.6211 243.375C56.6025 245.319 56.1185 247.232 55.2084 248.958C54.2983 250.684 52.9877 252.176 51.3826 253.311C52.5095 253.216 53.6441 253.358 54.7115 253.726C55.7789 254.094 56.7549 254.68 57.5753 255.445C59.2009 257.303 60.0145 259.717 59.8391 262.162ZM45.639 248.84C45.639 246.202 44.1797 245.282 41.2611 246.08L39.0722 246.687V254.599L40.4192 254.231C43.8991 253.274 45.639 251.477 45.639 248.84ZM47.5099 264.885C47.5099 262.002 45.9196 261.002 42.7391 261.886L39.1283 262.879V271.159L42.2527 270.295C43.6487 269.959 44.9357 269.281 45.9945 268.326C46.4684 267.884 46.8431 267.35 47.0944 266.757C47.3458 266.165 47.4682 265.527 47.4538 264.885H47.5099Z" fill="#F59F0D"/>
<path d="M95.7164 250.679C95.7617 253.001 95.3349 255.309 94.4611 257.468C93.5872 259.626 92.2839 261.59 90.6275 263.246C87.649 266.239 83.8975 268.376 79.7764 269.429L64.7344 273.495V230.254L76.8578 226.924V242.435L80.5996 241.405C83.8217 240.297 87.3306 240.297 90.5527 241.405C93.9951 242.84 95.7164 245.932 95.7164 250.679ZM83.8549 254.359C83.8549 251.39 82.0838 250.391 78.5416 251.36L76.8578 251.82V260.762L78.5416 260.302C82.0713 259.284 83.8362 257.297 83.8362 254.341L83.8549 254.359ZM110.235 261.075L98.0924 264.295V221.073L110.216 217.742L110.235 261.075Z" fill="#F59F0D"/>
<path d="M146.195 250.112C143.255 252.325 139.944 254.013 136.41 255.099C130.249 256.791 125.173 256.043 121.181 252.854C117.19 249.664 115.213 244.721 115.251 238.023C115.214 231.293 117.496 224.749 121.724 219.457C125.316 214.573 130.456 211.001 136.335 209.3C139.546 208.363 142.948 208.255 146.214 208.987V222.42C145.004 221.425 143.553 220.757 142.002 220.48C140.45 220.202 138.853 220.325 137.364 220.837C134.43 221.67 131.924 223.563 130.349 226.136C128.648 228.709 127.757 231.717 127.786 234.785C127.684 236.083 127.874 237.388 128.343 238.606C128.812 239.824 129.548 240.925 130.498 241.832C131.436 242.605 132.565 243.12 133.771 243.327C134.976 243.534 136.216 243.424 137.364 243.01C140.973 242.007 144.106 239.785 146.214 236.735L146.195 250.112Z" fill="#F59F0D"/>
<path d="M194.202 216.276C194.24 222.628 192.222 228.827 188.44 233.977C184.574 239.503 178.839 243.5 172.257 245.256C165.534 247.109 160.127 246.324 156.036 242.901C152.195 239.675 150.274 234.836 150.274 228.383C150.24 222.037 152.258 215.845 156.036 210.7C159.917 205.173 165.664 201.177 172.257 199.421C178.98 197.569 184.374 198.354 188.44 201.776C192.282 204.99 194.202 209.823 194.202 216.276ZM181.593 219.753C181.692 218.465 181.499 217.17 181.027 215.964C180.554 214.757 179.814 213.67 178.861 212.78C177.96 212.041 176.879 211.545 175.725 211.342C174.57 211.139 173.381 211.235 172.276 211.62C169.573 212.406 167.236 214.099 165.671 216.405C163.851 218.89 162.882 221.88 162.902 224.942C162.802 226.24 162.998 227.544 163.477 228.757C163.956 229.97 164.706 231.062 165.671 231.953C166.577 232.69 167.661 233.185 168.818 233.388C169.976 233.591 171.167 233.496 172.276 233.112C174.976 232.331 177.308 230.636 178.861 228.328C180.675 225.828 181.632 222.825 181.593 219.753Z" fill="#F59F0D"/>
<path d="M223.427 197.595L215.045 199.895V232.188L202.922 235.518V203.244L194.484 205.562V194.522L223.427 186.555V197.595Z" fill="#F59F0D"/>
<path d="M258.321 205.913C258.367 208.236 257.94 210.544 257.066 212.702C256.192 214.86 254.889 216.825 253.232 218.481C250.253 221.472 246.502 223.609 242.381 224.663L227.414 228.803V185.489L239.537 182.158V197.67L243.279 196.658C246.5 195.541 250.012 195.541 253.232 196.658C256.625 198.081 258.321 201.166 258.321 205.913ZM246.46 209.593C246.46 206.625 244.689 205.625 241.146 206.594L239.463 207.054V215.997L241.146 215.537C244.676 214.555 246.441 212.568 246.441 209.575L246.46 209.593ZM272.839 216.31L260.716 219.64V176.307L272.839 172.977V216.31Z" fill="#F59F0D"/>
</svg>

<svg width="300" height="300" fill="none" xmlns="http://www.w3.org/2000/svg"><path fill-rule="evenodd" clip-rule="evenodd" d="M145.474 226.293c57.847 0 104.741-46.894 104.741-104.741S203.321 16.81 145.474 16.81 40.732 63.705 40.732 121.552s46.894 104.741 104.742 104.741zm0 16.81c67.131 0 121.551-54.42 121.551-121.551S212.605 0 145.474 0C78.342 0 23.922 54.42 23.922 121.552c0 67.131 54.42 121.551 121.552 121.551z" fill="#F59F0D"/><path fill-rule="evenodd" clip-rule="evenodd" d="M145.474 243.103c67.131 0 121.551-54.42 121.551-121.551S212.605 0 145.474 0C78.342 0 23.922 54.42 23.922 121.552c0 67.131 54.42 121.551 121.552 121.551zm0-16.81c57.847 0 104.741-46.894 104.741-104.741S203.321 16.81 145.474 16.81 40.732 63.705 40.732 121.552s46.894 104.741 104.742 104.741z" fill="#F59F0D"/><path d="M69.82 113.79l54.311-87.93 32.621 54.416 12.088-21.434 26.786 44.791 11.716-21.262 27.996 45.644 25.862 41.379h-24.423l-21.133-32.295-23.115 3.382-22.052-34.845-12.079 19.792-11.753-19.792-21.221-34.518-12.285 9.158L69.82 113.79z" fill="#2B2A29"/><path d="M51.719 164.221l-21.983 11.638-15.517 8.405V299.35l126.724-23.276 93.103-35.56 52.365-9.699V104.516l-18.097 4.101-20.799 4.694-17.995 4.358-47.198 7.112-53.017 22.629-25.216-10.345-32.974 17.457-19.396 9.699z" fill="#2B2A29"/><path d="M58.133 201.741a31.93 31.93 0 01-5.612 18.787c-3.356 5.011-8.438 8.664-14.313 10.285a21.707 21.707 0 01-11.861.295v-11.721a13.015 13.015 0 0010.215 1.085 11.95 11.95 0 006.623-4.397 11.863 11.863 0 002.357-6.017l-12.067 3.33v-8.887l11.917-3.275a5.725 5.725 0 00-1.056-2.607 5.856 5.856 0 00-2.18-1.81 8.608 8.608 0 00-6.1-.257 19.517 19.517 0 00-9.728 6.458v-11.555a31.559 31.559 0 0111.918-6.367c5.862-1.619 10.645-.871 14.35 2.245 3.704 3.116 5.55 7.919 5.537 14.408zm40.783 11.202l-12.123 3.33v-17.167l-12.404 3.422v17.168l-12.123 3.33v-43.37l12.123-3.33v16.211l12.404-3.404v-16.248l12.123-3.33v43.388zm30.761-8.463l-24.771 6.827v-43.315l24.771-6.734v10.801l-12.647 3.478v5.63l11.693-3.349v10.212l-11.712 3.22v5.87l12.647-3.477.019 10.837zm36.841-38.755a17.674 17.674 0 01-3.742 11.408 20.274 20.274 0 01-10.833 6.642l-5.163 1.417v14.592l-12.124 3.33v-43.333l16.296-4.489c5.201-1.436 9.148-1.141 11.842.883 2.483 1.877 3.724 5.06 3.724 9.55zm-12.404 3.073c0-3.104-1.703-4.19-5.108-3.257l-2.245.607v9.31l2.133-.588c3.48-.945 5.22-2.969 5.22-6.072zm40.389-14.679l-11.973 3.293v32.514l-12.124 3.33V149.96l24.097-6.624v10.783zm41.869 20.993l-12.067 3.312V154.08l-14.611 28.374-11.506 3.165v-43.37l12.011-3.312v24.748l14.742-28.796 11.431-3.147v43.37zm36.487-10.045l-12.068 3.331v-15.125l-.692.184-7.221 17.112-13.097 3.68 8.887-18.584c-5.201-.295-7.802-3.76-7.802-10.396a17.736 17.736 0 011.317-7.079 17.958 17.958 0 014.034-6.004 22.732 22.732 0 0110.309-5.962l16.295-4.49.038 43.333zm-12.068-20.461v-9.715l-2.488.681c-3.505.969-5.257 3.042-5.257 6.219 0 3.177 1.752 4.342 5.257 3.496l2.488-.681zM59.84 262.162a15.44 15.44 0 01-3.48 10.028 21.462 21.462 0 01-11.376 6.845l-17.867 4.913v-43.333l17.081-4.692c4.179-1.154 7.372-.89 9.58.791a7.88 7.88 0 012.244 2.991c.494 1.158.7 2.417.6 3.67a12.218 12.218 0 01-1.414 5.583 12.444 12.444 0 01-3.825 4.353 8.124 8.124 0 013.328.415 8.042 8.042 0 012.864 1.719 9.197 9.197 0 012.264 6.717zM45.638 248.84c0-2.638-1.46-3.558-4.378-2.76l-2.189.607v7.912l1.347-.368c3.48-.957 5.22-2.754 5.22-5.391zm1.87 16.045c0-2.883-1.59-3.883-4.77-2.999l-3.61.993v8.28l3.124-.864a8.587 8.587 0 003.742-1.969 4.6 4.6 0 001.1-1.569c.25-.592.373-1.23.359-1.872h.056zm48.208-14.206a17.197 17.197 0 01-1.255 6.789 17.416 17.416 0 01-3.834 5.778 23.517 23.517 0 01-10.85 6.183l-15.043 4.066v-43.241l12.124-3.33v15.511l3.742-1.03a15.317 15.317 0 019.953 0c3.442 1.435 5.163 4.527 5.163 9.274zm-11.861 3.68c0-2.969-1.771-3.968-5.313-2.999l-1.684.46v8.942l1.684-.46c3.53-1.018 5.294-3.005 5.294-5.961l.019.018zm26.38 6.716l-12.143 3.22v-43.222l12.124-3.331.019 43.333zm35.96-10.963a31.801 31.801 0 01-9.785 4.987c-6.161 1.692-11.237.944-15.229-2.245-3.991-3.19-5.968-8.133-5.93-14.831a29.476 29.476 0 016.473-18.566c3.592-4.884 8.732-8.456 14.611-10.157a19.814 19.814 0 019.879-.313v13.433a9.168 9.168 0 00-4.212-1.94 9.25 9.25 0 00-4.638.357 12.084 12.084 0 00-7.015 5.299 15.412 15.412 0 00-2.563 8.649 8.728 8.728 0 00.557 3.821 8.867 8.867 0 002.155 3.226 7.01 7.01 0 003.273 1.495 7.071 7.071 0 003.593-.317 15.934 15.934 0 008.85-6.275l-.019 13.377zm48.007-33.836a29.596 29.596 0 01-5.762 17.701c-3.866 5.526-9.601 9.523-16.183 11.279-6.723 1.853-12.13 1.068-16.221-2.355-3.841-3.226-5.762-8.065-5.762-14.518a29.598 29.598 0 015.762-17.683c3.881-5.527 9.628-9.523 16.221-11.279 6.723-1.852 12.117-1.067 16.183 2.355 3.842 3.214 5.762 8.047 5.762 14.5zm-12.609 3.477a8.59 8.59 0 00-.566-3.789 8.702 8.702 0 00-2.166-3.184 6.805 6.805 0 00-3.136-1.438 6.874 6.874 0 00-3.449.278 12.035 12.035 0 00-6.605 4.785 14.286 14.286 0 00-2.769 8.537 8.588 8.588 0 00.575 3.815 8.703 8.703 0 002.194 3.196 6.87 6.87 0 003.147 1.435 6.92 6.92 0 003.458-.276 11.922 11.922 0 006.585-4.784 14.286 14.286 0 002.732-8.575zm41.834-22.158l-8.382 2.3v32.293l-12.123 3.33v-32.274l-8.438 2.318v-11.04l28.943-7.967v11.04zm34.894 8.318a17.174 17.174 0 01-1.255 6.789 17.413 17.413 0 01-3.834 5.779 23.544 23.544 0 01-10.851 6.182l-14.967 4.14v-43.314l12.123-3.331v15.512l3.742-1.012a15.2 15.2 0 019.953 0c3.393 1.423 5.089 4.508 5.089 9.255zm-11.861 3.68c0-2.968-1.771-3.968-5.314-2.999l-1.683.46v8.943l1.683-.46c3.53-.982 5.295-2.969 5.295-5.962l.019.018zm26.379 6.717l-12.123 3.33v-43.333l12.123-3.33v43.333z" fill="#F59F0D"/></svg>
